res/skins/LateNight/palemoon/buttons/btn_embedded_spinbox_autodj.svg

<svg width="26" height="26" version="1.1" xmlns="http://www.w3.org/2000/svg" xmlns:xlink="http://www.w3.org/1999/xlink">
  <defs>
    <linearGradient id="c" x1="2" x2="22" y1="2" y2="22" gradientTransform="matrix(1.04762 0 0 1.04762 .928571 .928569)" gradientUnits="userSpaceOnUse">
      <stop offset="0"/>
      <stop offset=".5"/>
      <stop stop-color="#333" stop-opacity=".974747" offset=".5"/>
      <stop stop-color="#333" offset="1"/>
    </linearGradient>
  </defs>
  <rect x="2.5" y="2.5" width="22" height="22" fill="none" stroke="url(#c)" stroke-linecap="square" style="paint-order:fill markers stroke"/>
  <rect x=".75" y=".75" width="24.5" height="24.5" rx=".3" ry=".3" fill="none" stroke="#000001" stroke-linecap="round" stroke-linejoin="round" stroke-width="1.5" style="paint-order:fill markers stroke"/>
  <path d="m24 1-22.5-0.0078125c-0.276131 2.761e-5 -0.499972 0.223869-0.5 0.5v23.5h1v-23h22" color="#000001" color-rendering="auto" dominant-baseline="auto" fill="#222" image-rendering="auto" shape-rendering="auto" solid-color="#000001" style="font-feature-settings:normal;font-variant-alternates:normal;font-variant-caps:normal;font-variant-ligatures:normal;font-variant-numeric:normal;font-variant-position:normal;isolation:auto;mix-blend-mode:normal;shape-padding:0;text-decoration-color:#000001;text-decoration-line:none;text-decoration-style:solid;text-indent:0;text-orientation:mixed;text-transform:none;white-space:normal"/>
  <path d="m2 25 1-1h21v-21l1-1v23z" fill="#222"/>
  <path d="m2 1c-0.562649 0-1 0.437352-1 1v0.5h1.10742c0.150078-0.293496 0.446906-0.5 0.800781-0.5h19.1836c0.353874 0 0.650703 0.206504 0.800781 0.5h1.10742v-0.5c0-0.562648-0.437351-1-1-1z" color="#000000" color-rendering="auto" dominant-baseline="auto" fill="#dcdcdc" fill-opacity=".0705882" image-rendering="auto" shape-rendering="auto" solid-color="#000000" style="font-feature-settings:normal;font-variant-alternates:normal;font-variant-caps:normal;font-variant-ligatures:normal;font-variant-numeric:normal;font-variant-position:normal;isolation:auto;mix-blend-mode:normal;paint-order:fill markers stroke;shape-padding:0;text-decoration-color:#000000;text-decoration-line:none;text-decoration-style:solid;text-indent:0;text-orientation:mixed;text-transform:none;white-space:normal"/>
  <path d="m2 24.9922c-0.562649 0-1-0.437352-1-1v-21.4922h1v20.584c0 0.503636 0.404567 0.908203 0.908203 0.908203h19.1836c0.503636 0 0.908203-0.404567 0.908203-0.908203v-20.584h1v21.4922c0 0.562648-0.437351 1-1 1z" color="#000000" color-rendering="auto" dominant-baseline="auto" fill="#d1d1d1" fill-opacity=".0196078" image-rendering="auto" shape-rendering="auto" solid-color="#000000" style="font-feature-settings:normal;font-variant-alternates:normal;font-variant-caps:normal;font-variant-ligatures:normal;font-variant-numeric:normal;font-variant-position:normal;isolation:auto;mix-blend-mode:normal;paint-order:fill markers stroke;shape-padding:0;text-decoration-color:#000000;text-decoration-line:none;text-decoration-style:solid;text-indent:0;text-orientation:mixed;text-transform:none;white-space:normal"/>
</svg>

<?xml version="1.0" encoding="UTF-8" standalone="no"?>
<svg
   xmlns:dc="http://purl.org/dc/elements/1.1/"
   xmlns:cc="http://creativecommons.org/ns#"
   xmlns:rdf="http://www.w3.org/1999/02/22-rdf-syntax-ns#"
   xmlns:svg="http://www.w3.org/2000/svg"
   xmlns="http://www.w3.org/2000/svg"
   xmlns:xlink="http://www.w3.org/1999/xlink"
   width="26"
   height="26"
   version="1.1"
   id="svg26">
  <metadata
     id="metadata30">
    <rdf:RDF>
      <cc:Work
         rdf:about="">
        <dc:format>image/svg+xml</dc:format>
        <dc:type
           rdf:resource="http://purl.org/dc/dcmitype/StillImage" />
        <dc:title></dc:title>
      </cc:Work>
    </rdf:RDF>
  </metadata>
  <defs
     id="defs18">
    <linearGradient
       gradientUnits="userSpaceOnUse"
       gradientTransform="translate(2.50005 -.507121)"
       y2="25"
       y1="2"
       x2="-1"
       x1="-1"
       id="linearGradient874">
      <stop
         style="stop-color:#1c1c1c;stop-opacity:1"
         id="stop868"
         offset="0"
         stop-color="#393939" />
      <stop
         style="stop-color:#1e1e1e;stop-opacity:1"
         id="stop870"
         offset="0.30102351"
         stop-color="#393939" />
      <stop
         style="stop-color:#0f0f0f;stop-opacity:1"
         id="stop872"
         offset="1"
         stop-color="#141414" />
    </linearGradient>
    <linearGradient
       id="c"
       x1="2"
       x2="22"
       y1="2"
       y2="22"
       gradientTransform="matrix(1.0476191 0 0 1.0476191 .92857134 .92856947)"
       gradientUnits="userSpaceOnUse">
      <stop
         offset="0"
         id="stop2" />
      <stop
         offset=".5"
         id="stop4" />
      <stop
         stop-color="#333"
         stop-opacity=".97474748"
         offset=".5"
         id="stop6" />
      <stop
         stop-color="#333"
         offset="1"
         id="stop8" />
    </linearGradient>
    <linearGradient
       id="b"
       x1="-1"
       x2="-1"
       y1="2"
       y2="25"
       gradientTransform="translate(2.50005 -.507121)"
       gradientUnits="userSpaceOnUse">
      <stop
         stop-color="#393939"
         offset="0"
         id="stop11"
         style="stop-color:#1c1c1c;stop-opacity:1" />
      <stop
         stop-color="#393939"
         offset=".30102351"
         id="stop13"
         style="stop-color:#1e1e1e;stop-opacity:1" />
      <stop
         stop-color="#141414"
         offset="1"
         id="stop15"
         style="stop-color:#0f0f0f;stop-opacity:1" />
    </linearGradient>
    <linearGradient
       xlink:href="#linearGradient874"
       id="linearGradient866"
       x1="22"
       y1="3"
       x2="22"
       y2="24"
       gradientUnits="userSpaceOnUse" />
  </defs>
  <rect
     x="2.5"
     y="2.4999981"
     width="22"
     height="22.000002"
     style="paint-order:fill markers stroke"
     id="rect24"
     stroke-linecap="square"
     stroke="url(#c)"
     fill="none" />
  <rect
     x=".75"
     y=".75"
     width="24.5"
     height="24.5"
     rx=".30000007"
     ry=".30000007"
     fill="none"
     stroke="#000001"
     stroke-linecap="round"
     stroke-linejoin="round"
     stroke-width="1.5"
     style="paint-order:fill markers stroke"
     id="rect20" />
  <path
     d="m24 1-22.5-.0078125c-.2761309 2.761e-5-.4999724.2238691-.5.5v23.5000005h1v-23.0000005h22"
     color="#000001"
     color-rendering="auto"
     dominant-baseline="auto"
     fill="url(#b)"
     image-rendering="auto"
     shape-rendering="auto"
     solid-color="#000001"
     style="font-feature-settings:normal;font-variant-alternates:normal;font-variant-caps:normal;font-variant-ligatures:normal;font-variant-numeric:normal;font-variant-position:normal;isolation:auto;mix-blend-mode:normal;shape-padding:0;text-decoration-color:#000001;text-decoration-line:none;text-decoration-style:solid;text-indent:0;text-orientation:mixed;text-transform:none;white-space:normal;fill:#222222;fill-opacity:1"
     id="path22" />
  <path
     style="fill:#222222;stroke:none;stroke-width:1px;stroke-linecap:butt;stroke-linejoin:miter;stroke-opacity:1;fill-opacity:1"
     d="M 2,25 3,24 H 24 V 3 l 1,-1 v 23 z"
     id="path858" />
  <path
     id="rect15-3-7-1-3"
     d="M 2,1 C 1.437351,1 1,1.437352 1,2 V 2.5 H 2.107422 C 2.2575,2.2065045 2.554328,2 2.908203,2 h 19.183594 c 0.353874,0 0.650703,0.2065045 0.800781,0.5 H 24 V 2 C 24,1.437352 23.562649,1 23,1 Z"
     style="color:#000000;font-style:normal;font-variant:normal;font-weight:normal;font-stretch:normal;font-size:medium;line-height:normal;font-family:sans-serif;font-variant-ligatures:normal;font-variant-position:normal;font-variant-caps:normal;font-variant-numeric:normal;font-variant-alternates:normal;font-feature-settings:normal;text-indent:0;text-align:start;text-decoration:none;text-decoration-line:none;text-decoration-style:solid;text-decoration-color:#000000;letter-spacing:normal;word-spacing:normal;text-transform:none;writing-mode:lr-tb;direction:ltr;text-orientation:mixed;dominant-baseline:auto;baseline-shift:baseline;text-anchor:start;white-space:normal;shape-padding:0;clip-rule:nonzero;display:inline;overflow:visible;visibility:visible;opacity:1;isolation:auto;mix-blend-mode:normal;color-interpolation:sRGB;color-interpolation-filters:linearRGB;solid-color:#000000;solid-opacity:1;vector-effect:none;fill:#dcdcdc;fill-opacity:0.07058824;fill-rule:nonzero;stroke:none;stroke-width:1;stroke-linecap:round;stroke-linejoin:round;stroke-miterlimit:4;stroke-dasharray:none;stroke-dashoffset:0;stroke-opacity:1;paint-order:fill markers stroke;color-rendering:auto;image-rendering:auto;shape-rendering:auto;text-rendering:auto;enable-background:accumulate" />
  <path
     id="rect15-3-7-9-6"
     d="m 2,24.992188 c -0.562649,0 -1,-0.437352 -1,-1 V 2.5 h 1 v 15.052735 5.53125 c 0,0.503636 0.404567,0.908203 0.908203,0.908203 H 22.091797 C 22.595433,23.992188 23,23.587621 23,23.083985 V 17.552735 2.5 h 1 v 21.492188 c 0,0.562648 -0.437351,1 -1,1 z"
     style="color:#000000;font-style:normal;font-variant:normal;font-weight:normal;font-stretch:normal;font-size:medium;line-height:normal;font-family:sans-serif;font-variant-ligatures:normal;font-variant-position:normal;font-variant-caps:normal;font-variant-numeric:normal;font-variant-alternates:normal;font-feature-settings:normal;text-indent:0;text-align:start;text-decoration:none;text-decoration-line:none;text-decoration-style:solid;text-decoration-color:#000000;letter-spacing:normal;word-spacing:normal;text-transform:none;writing-mode:lr-tb;direction:ltr;text-orientation:mixed;dominant-baseline:auto;baseline-shift:baseline;text-anchor:start;white-space:normal;shape-padding:0;clip-rule:nonzero;display:inline;overflow:visible;visibility:visible;opacity:1;isolation:auto;mix-blend-mode:normal;color-interpolation:sRGB;color-interpolation-filters:linearRGB;solid-color:#000000;solid-opacity:1;vector-effect:none;fill:#d1d1d1;fill-opacity:0.01960784;fill-rule:nonzero;stroke:none;stroke-width:1;stroke-linecap:round;stroke-linejoin:round;stroke-miterlimit:4;stroke-dasharray:none;stroke-dashoffset:0;stroke-opacity:1;paint-order:fill markers stroke;color-rendering:auto;image-rendering:auto;shape-rendering:auto;text-rendering:auto;enable-background:accumulate" />
</svg>
